X:1
T:Title
%%score ( 1 2 ) ( 3 4 )
L:1/8
Q:1/4=97
M:4/4
K:Bb
V:1 treble nm="Grand Piano, Soprano"
V:2 treble 
V:3 bass nm="Choir Pad, What a Change, C. Martin"
V:4 bass 
V:1
 [DB]2 [EA]>[EG] [DF]2 [_D=E]>[=DF] | [_DG]2 [DA]>[DG] [=DF]4 | [CE]2 [A,F]>[CE] [B,D]2 [FB]>[FA] | %3
w: By~Charles~Hutchinson~Gabriel * * * * *|||
 [EG]2 [=Ec]>[Ed] [_Ec]4 | [DB]2 [EA]>[EG] [DF]2 [_D=E]>[=DF] | [_DG]2 [DA]>[DG] [=DF]4 | %6
w: |||
 [CF]2 [C=E]>[CF] [EG]4 | [=Ec]2 [EG]>[Ed] [_Ec]4 | [Fd]2 [Ec]>[DB] [Fd]2 [Fc][FB] | %9
w: |||
 [GB]2 [FA]>[EG] [DF]4 | [EG]2 [E^F]>[EG] [=Ec]4 | z4 f4 | [Fd]2 [Ec]>[DB] [Fd]2 [Fc][FB] | %13
w: ||||
 [GB]2 [FA]>[EG] [DF]4 | [EG]2 [E^F]>[EG] [=Ec]4 | [Ed]2 [Ec]>[EF] [DB]4- | [DB]4 z4 |] %17
w: ||||
V:2
 x8 | x8 | x8 | x8 | x8 | x8 | x8 | x8 | x8 | x8 | x8 | [Fd]2 [Fc]>F F2 E2 | x8 | x8 | x8 | x8 | %16
 x8 |] %17
V:3
 [B,,F,]2 [B,,G,]>[B,,A,] [B,,B,]2 [B,,B,]>[B,,B,] | [B,,B,]2 [B,,B,]>[B,,B,] [B,,B,]4 | %2
 [A,,F,]2 [F,,F,]>[F,,F,] [B,,F,]2 [D,B,]>[D,B,] | [E,B,]2 [C,B,]>[C,B,] [F,A,]4 | %4
 B,F, [B,,G,]>[B,,A,] [B,,B,]2 [B,,B,]>[B,,B,] | [B,,B,]2 [B,,B,]>[B,,B,] [B,,B,]4 | %6
 [C,A,]2 [C,G,]>[C,A,] [C,B,]4 | [C,G,]2 [C,B,]>[C,B,] [F,A,]4 | %8
 [B,,B,]2 [B,,F,]>[B,,F,] [B,,B,]2 [C,A,][D,B,] | [E,B,]2 [E,B,]>[E,B,] [B,,B,]4 | %10
 [E,B,]2 [E,A,]>[E,B,] [C,B,]4 | [F,B,]2 [E,A,]>[E,A,] [D,B,]2 [C,A,]2 | %12
 [B,,B,]2 [B,,F,]>[B,,F,] [B,,B,]2 [C,A,][D,B,] | [E,B,]2 [E,B,]>[E,B,] [B,,B,]4 | %14
 [E,B,]2 [E,A,]>[E,B,] [C,B,]4 | [F,A,]2 [F,A,]>F, [B,,F,]4- | [B,,F,]4 z4 |] %17
V:4
 x8 | x8 | x8 | x8 | B,,2 z2 z4 | x8 | x8 | x8 | x8 | x8 | x8 | x8 | x8 | x8 | x8 | x8 | x8 |] %17

